X:0304
T:Hey! Jenny Come Down to Jock
P:Hey! Jenny Come Down to Jock
C:Gow's Repository
R:Jig (8x24) ABB
B:RSCDS 3-4
Z:Anselm Lingnau <anselm@strathspey.org>
M:6/8
L:1/8
K:F
f|"F"F2F GAc|"Bb"d>cA "C"G2f|"F"F2F "C"GAc|"Dm"d>cd D2 f|
  "F"F2F GAc|"Bb"d>cA "C"G2f|"F"F2F "C"GAc|"Dm"d>cd D2||
|:d/e/|"Dm"fed "Gm"gfe|"Dm"[fA]ed "C"[cG]de|\
			"Dm"[fA]ed "Gm"[gB]gf|"A7"a>ga "Dm"[d2F2] d/e/|
       "Dm"fed "Gm"gfe|"Dm"fed "C"cde|\
			"F"fga cAF|"Gm"[G2D2][A^C] D2:|
